X:1
T:Ecco d'oro l'età - Arcadelt
T:James Gibb editions
T:#
%%score [ 1 2 3 4 ]
L:1/8
Q:1/4=108
M:4/4
K:C
V:1 treble nm="Soprano" snm="S"
V:2 treble nm="Alto" snm="A"
V:3 treble-8 nm="Tenor" snm="T"
V:4 bass nm="Bass" snm="B"
V:1
"^Ecco d'oro l'età""^Jacob Arcadelt\n(1505-68)" c8 | c4 c4- | c2 c2 c4 | B6 B2 | c2 c2 d4 | G8 | %6
w: Ec-|co d'o\-|* ro l'e-|tà pre-|gia ta~~e bel-|la;|
 z2 c2 B2 A2 | G2 A2 B2 B2 | z2 B2 B2 B2 |[M:4/4] c4 A4 | G2 G2 G2 A2- | A2 (G4 ^F2) | G8- | G8 || %14
w: Ec- co di|lat- te pu- ro,|Col- mo gia'l|Teb- re~~e'l|mar lie- to~~e si\-|* cu\- *|ro.||
 B8 | c2 c2 d2 d2 | B2 B2 z2 B2 | c2 B2 c2 A2 | B2 B2 z2 c2 | A2 c2 c2 c2- | c2 B4 A2 | A2 G2 A4 | %22
w: Poi|che be- ni- gna|stel- la de|per- la tan- to|ra- ra Al|te- ne- re l'au\-|* gu- sto~il|ca- po~a- dor-|
 G4 z2 G2 | G2 G2 G2 G2 | A2 A2 A2 B2 | G2 A2 z2 G2 | c4 A2 (B2- | BA A4 G2) | A8- | A4 z2 d2 | %30
w: na, L'an-|ti- ca pa- ce~~ho-|mai dop- pia ri-|tor- na, dop-|pia ri- tor\-||na,|* Ed|
 d2 e2 c3 d | e2 d2 z2 d2 | e2 d2 c2 c2 | B6 B2 | c2 c2 d4 | G4 z2 G2 |: A2 B2 c2 d2 | e4 d2 c2- | %38
w: in voc' al- ta~~e|chia- ra Per|o- gni cli- ma|gia suon'|il ro- mo-|re, D'Ot-|ta- vio Mar- ga-|ri- ta pac'|
 c2 B2 (A4- | A2 F2 G4) |1 G4 z2 G2 :|2[Q:1/4=101] G8- ||[Q:1/4=94] G8 |[Q:1/4=92] !fermata!G8 |] %44
w: * e~~a- mo\-||re, D'Ot-|re.|||
V:2
 G8 | G4 A4- | A2 A2 A4 | G4 z2 G2 | A2 G2 F4 | E8 | G4 G2 E2 | E2 F2 G2 G2 | z2 G2 G2 G2 | %9
w: Ec-|co d'o\-|* ro l'e-|tà pre-|gia ta~~e bel-|la;|Ec- co di|lat- te pu- ro,|Col- mo gia'l|
[M:4/4] A4 F4 | D4 E2 F2 | D2 (E4 DC | B,3 C D2 E2) | D8 || G8 | G2 G2 A2 A2 | G2 G2 z2 G2 | %17
w: Teb- re~~e'l|mar lie- to~~e|si- cu\- * *||ro.|Poi|che be- ni- gna|stel- la de|
 A2 G2 G2 ^F2 | G2 G2 z2 A2 | F2 A4 G2- | G2 G4 F2- | F2 E2 E2 D2 | E2 E2 z2 E2 | E2 E2 D2 E2 | %24
w: per- la tan- to|ra- ra Al|te- ne- re|* l'au- gu\-|* sto~il ca- po~a-|dor- na, L'an-|ti- ca pa- ce~~ho-|
 (F3 E D4) | z2 C2 F2 D2 | E4 D4 | z2 C2 F2 D2 | (E4 D4) | A,4 z2 A2 | G2"^1" G2 A2 A2 | %31
w: mai * *|dop- pia ri-|tor- na,|dop- pia ri-|tor\- *|na, Ed|in voc' al- ta~~e|
 B2 B2 z2 B2 | c2 B2 A2 A2 | G6 G2 | G2 A2 F4 | E2 C2 D2 E2 |: F2 G2 A2 B2 | c3 B A2 G2 | %38
w: chia- ra Per|o- gni cli- ma|gia suon'|il ro- mo-|re, D'Ot- ta- vio|Mar- ga- ri- ta|pac' e~~a- mo- re,|
 z2 G2 E2 (C2 | FEDC D4) |1 E2 C2 D2 E2 :|2 E2 E4 D2 || (E6 DC) | !fermata!D8 |] %44
w: pac' e~~a- mo\-||re, D'Ot- ta- vio|re, pac' e~~a-|mo\- * *|re.|
V:3
 e8 | e4 e4- | e2 e2 f4 | d2 d2 e2 (d2- | dc) (c4 B2) | c8 | e4 d2 c2 | B2 c2 d2 d2 | z2 e2 e2 e2 | %9
w: Ec-|co d'o\-|* ro l'e-|tà pre- gia ta~~e|* * bel\- *|la;|Ec- co di|lat- te pu- ro,|Col- mo gia'l|
[M:4/4][K:treble-8] e4 d4 | B4 c4 | A2 B2 (c3 d | e2 d2 B2 c2- | c2 BA) B4 || d8 | e2 g2 g2 f2 | %16
w: Teb- re~~e'l|mar lie-|to~~e si- cu\- *||* * * ro.|Poi|che be- ni- gna|
 e2 d2 z2 d2 | f2 d2 e2 d2 | d2 d2 z2 f2 | c2 f4 e2- | e2 d4 d2 | c2 B4 A2 | c2 B2 z2 B2 | %23
w: stel- la de|per- la tan- to|ra- ra Al|te- ne- re|* l'au- gu-|sto~il ca- po~a-|dor- na, L'an-|
 B2 c2 c2 B2 | c2 c2 f2 d2 | e4 d4 | z2 c2 f2 d2 | e4 d2 d2 | d2 c2 f4 | e4 (f3 e | d2 g4 ^f2) | %31
w: ti- ca pa- ce~~ho-|mai dop- pia ri-|tor- na,|dop- pia ri-|tor- na, Ed|in voc' al-|ta~~e chia\- *||
 g4 z2 g2 | g2 g2 e2 f2 | d2 d2 e2 (d2- | dc) (c4 B2 | c4) G4 |: z8 | z2 g2 f2 e2 | d2 d2 c2 e2 | %39
w: ra Per|o- gni cli- ma|gia suon' il ro\-|* * mo\- *|* re,||D'Ot- ta- vio|Mar- ga- ri- ta|
 d2 (c4 B2) |1 c4 G4 :|2 c4 G4 || z2 c4 (BA) | !fermata!B8 |] %44
w: pac' e~~a\- *|mo- re,|mo- re,|a- mo\- *|re.|
V:4
 C8 | C4 A,4- | A,2 A,2 F,4 | G,6 G,2 | F,2 E,2 D,4 | C,8 | C4 G,2 A,2 | E,2 A,2 G,2 G,2 | %8
w: Ec-|co d'o\-|* ro l'e-|tà pre-|gia ta~~e bel-|la;|Ec- co di|lat- te pu- ro,|
 z2 E,2 E,2 E,2 |[M:4/4] A,4 D,4 | G,4 C,2 F,2- | F,2 E,2 (A,4 | G,6 C,2) | G,8 || G,8 | %15
w: Col- mo gia'l|Teb- re~~e'l|mar lie- to~~e|* si- cu\-||ro.|Poi|
 C2 E2 D2 D2 | G,2 G,2 z2 G,2 | F,2 G,2 C,2 D,2 | G,2 G,2 z2 F,2 | F,2 F,2 C2 C2 | G,4 D,4 | %21
w: che be- ni- gna|stel- la de|per- la tan- to|ra- ra Al|te- ne- re l'au-|gu- sto~il|
 E,2 E,2 F,4 | E,4 z2 E,2 | E,2 C,2 G,2 G,2 | F,4 z2 G,2 | C2 A,2 _B,4 | A,4 z2 G,2 | C2 A,2 _B,4 | %28
w: ca- po~a- dor-|na, L'an-|ti- ca pa- ce~~ho-|mai dop-|pia ri- tor-|na, dop-|pia ri- tor-|
 A,4 z2 D2 | D2 C2 (D3 C | B,2) C2 A,4 | G,4 z2 G,2 | C2 G,2 A,2 F,2 | G,6 G,2 | E,2 F,2 D,4 | %35
w: na, Ed|m voc' al\- *|* ta~~e chia-|ra Per|o- gni cli- ma|gia suon'|il ro- mo-|
 C,4 z4 |: z8 | z2 C,2 D,2 E,2 | F,2 G,2 A,2 A,2 | F,2 A,2 G,4 |1 C,4 z4 :|2 C,2 C4 B,2 || %42
w: re,||D'Ot- ta- vio|Mar- ga- ri- ta|pac' e~~a- mo-|re,|re, pac' e~~a-|
 C4 G,4- | !fermata!G,8 |] %44
w: mo- re.||

